X: 18
T:Farewell To Nigg
M:3/4
L:1/8
K:Hp
B>c | d2 c>B Ac | B4 d>e | f2 d>e fa | f4 fa |
f2 B2 de | c>B A2 ce | f2 e>c Ac | B4 :|
d>e | f2 f2 a>e | f2 B2 d>e | f2 fa f>e | c4 ce |
f2 B2 de | c>B A2 ce | f2 e>c Ac | B4 :|
B>c | d2 e2 cA|B4 d>e | f2 d>e fa | f4 a>e |
f2 B2 de | c>B A2 d>e | f2 e>c Ac | B4 :|
d>e | f2 fa f>e | f2 B2 d>e | f2 fa f>e | c4 a>e |
f2 B2 de | c>B A2 ce | f2 e>c Ac | B4 :|

